!!!!SEGMENT: pl-wtm--r-1607--006_stefani-jozef--requiem-agnus-dei.krn
!!!id: 18xx:2361
!!!COM: Stefani, Józef
!!!COM-rism: pe30024097
!!!CDT: 1800/04/16-1876/03/19
!!!CNT: Polish
!!!OTL: Requiem – Agnus Dei
!!!PDT:
!!!SMS-siglum: PL-Wtm
!!!SMS-shelfmark: R 1607
!!!NIFC-rismID: 1001115431
!!!URL-scan: http://repozytorium.nifc.pl/skany/pl-wtm-nut--r1607
!!!ONB-nifc: UWAGA: części Requiem: 1. Requiem aeternam, 2. Dies irae, 3. Offertorium, 4. Sanctus, 5. Benedicuts, 6. Agnus Dei, 7. Salve Regina
!!!SMS-variant:
!!!SMS-altvar:
!!!OMD: Adagio.
**kern	**kern	**kern	**text	**text	**kern	**text	**text	**dynam	**kern	**text	**text	**dynam
*part4	*part4	*part3	*part3	*part3	*part2	*part2	*part2	*part2	*part1	*part1	*part1	*part1
*staff5	*staff4	*staff3	*staff3	*staff3	*staff2	*staff2	*staff2	*	*staff1	*staff1	*staff1	*
*I"[Organo]	*I"[Organo]	*I"[Basſo]	*	*	*I"[Tenore IIo]	*	*	*	*I"[Tenore Imo]	*	*	*
*clefF4	*clefG2	*clefF4	*	*	*clefG2	*	*	*	*clefG2	*	*	*
*	*	*	*	*	*ITrd7c12	*	*	*	*ITrd7c12	*	*	*
*k[b-e-a-]	*k[b-e-a-]	*k[b-e-a-]	*	*	*k[b-e-a-]	*	*	*	*k[b-e-a-]	*	*	*
*M4/4	*M4/4	*M4/4	*	*	*M4/4	*	*	*	*M4/4	*	*	*
*met(c)	*met(c)	*met(c)	*	*	*met(c)	*	*	*	*met(c)	*	*	*
4r	[>4G</	4r	.	.	[4G/	A-	Ba-	.	4r	.	.	.
=1	=1	=1	=1	=1	=1	=1	=1	=1	=1	=1	=1	=1
*all\right	*all\right	*all\right	*	*	*all\right	*	*	*	*all\right	*	*	*
!	!	!	!	!	!	!	!	!LO:DY:a	!	!	!	!
2r	1G<]	2r	.	.	2G/]	.	-ran-	<	1r	.	.	.
4r	.	4r	.	.	2G/	-gnus	-Ku	[[	.	.	.	.
4GG\ 4G	.	[4G\	A-	Ba-	.	.	.	.	.	.	.	.
=2	=2	=2	=2	=2	=2	=2	=2	=2	=2	=2	=2	=2
!	!	!	!	!	!	!	!	!LO:DY:a	!	!	!	!
*2\right	*	*2\right	*	*	*	*	*	*	*	*	*	*
2GG\ 2G	2.A-</	2G\]	.	-ran-	2A-/	De-	Bo-	>	2r	.	.	.
2FF\ 2F	.	4F\	-gnus	-ku	4A-/	-i	-ży	]	4r	.	.	.
.	4A-</ 4Bn<	(4F\	A-	Ba-	(4A-/	A-	Ba-	.	(4Bn\	A-	Ba-	.
=3	=3	=3	=3	=3	=3	=3	=3	=3	=3	=3	=3	=3
*	*	*	*	*	*	*	*	*	*2\right	*	*	*
2EE-\ 2E-	2G</ 2c	2E-\)	.	ran-	2G/)	.	ran-	.	2c\)	.	ran-	.
2CC\ 2C	2G</ 2c 2e-	2C/	-gnus	-ku	2G/	-gnus	-ku	.	2e-\	-gnus	-ku	.
=4	=4	=4	=4	=4	=4	=4	=4	=4	=4	=4	=4	=4
*	*	*^	*	*	*^	*	*	*	*^	*	*	*
4.GG\ 4.G	4.Bn/ 4.d	(4.G\	2.ryy	De-	Bo-	(4.Bn\	2.ryy	De-	Bo-	.	(4.d\	2.ryy	De-	Bo-	.
8FF#X\ 8F#X	8c/ 8e-	8F#X\)	.	.	.	8c\)	.	.	.	.	8e-\)	.	.	.	.
!	!	!	!	!	!	!	!	!	!	!	!	!	!	!	!LO:DY:a
4GG\ 4G	4B/ 4d	4G\	.	-i	-ży	4B\	.	-i	-ży	.	4d\	.	-i	-ży	f
4GG\ 4G	4B/ 4d	4G\	8.G/	qui	Któ-	4B\	8.B/	qui	Któ-	.	4d\	8.d/	qui	Któ-	.
.	.	.	16G/	.	ry	.	16B/	.	-ry	.	.	16d/	.	-ry	.
!!LO:LB:g=original
=5	=5	=5	=5	=5	=5	=5	=5	=5	=5	=5	=5	=5	=5	=5	=5
2CC/ 2C	2c/ 2e-	2C/	4C\	tol-	gła-	2c/	4c\	.	.	.	2e-/	4e-\	.	.	.
.	.	.	8.C\	-lis	.	.	8.c\	.	.	.	.	8.e-\	.	.	.
.	.	.	16C\	pec-	.	.	16c\	.	.	.	.	16e-\	.	.	.
2EE-\ 2E-	2G</ 2c	2E-/	4E-\	-ca-	-dzisz	2G/	4G\	.	.	.	2c/	4c\	.	.	.
.	.	.	4E-\	-ta	.	.	4G\	.	.	.	.	4c\	.	.	.
=6	=6	=6	=6	=6	=6	=6	=6	=6	=6	=6	=6	=6	=6	=6	=6
4FF\ 4F	1B- 1d	(>4F/	4F\	mun-	grze-	2B-/	4B-\	.	.	.	2d/	4d\	.	.	.
4FF#X\ 4F#X	.	4F#X/)	4F#\	-di	.	.	4B-\	.	.	.	.	4d\	.	.	.
4GG\ 4G	.	(>4G/	8G\	do-	-chy	2B-/	8B-\	.	.	.	2d/	8d\	.	.	.
.	.	.	8G\	-na	.	.	8B-\	.	.	.	.	8d\	.	.	.
4EEn/ 4En	.	4En/)	8En\	e-	.	.	8B-\	.	.	.	.	8d\	.	.	.
.	.	.	8E\	-is	.	.	8B-\	.	.	.	.	8d\	.	.	.
=7	=7	=7	=7	=7	=7	=7	=7	=7	=7	=7	=7	=7	=7	=7	=7
1FF 1F	2B-/ 2c	2F/	8.F\	re-	grze-	2B-/	8.B-\	.	.	.	2c/	8.c\	.	.	.
.	.	.	16F\	-qu-	.	.	16B-\	.	.	.	.	16c\	.	.	.
.	.	.	4F\	-iem	.	.	4B-\	.	.	.	.	4c\	.	.	.
.	2An/ 2f	2F/	4F\	sem-	-chy	2An/	4An\	.	.	.	2f/	4f\	.	.	.
.	.	.	4F\	-pi	.	.	4A\	.	.	.	.	4f\	.	.	.
*	*	*	*	*	*	*v	*v	*	*	*	*	*	*	*	*
!!LO:PB:g=original
=8	=8	=8	=8	=8	=8	=8	=8	=8	=8	=8	=8	=8	=8	=8
*	*	*	*	*	*	*2\right	*	*	*	*	*	*	*	*
[>2BB-\ [>2F	2.B-/ 2.d	2BB-/	2.ryy	ter-	świa-	2B-\	.	.	.	2d/	2d\	.	.	.
8.BB-\] 8.F]	.	8.BB-/	.	-nam	-ta	4B-\	.	.	.	4d/	4d\	.	.	.
16BB-/	.	16BB-/	.	Lux	Daj	.	.	.	.	.	.	.	.	.
8.B-\L	4r	8.B-/	8.B-\L	ae-	im	4r	.	.	.	4r	4ryy	.	.	.
16A-\Jk	.	16A-/	16A-\Jk	.	spo-	.	.	.	.	.	.	.	.	.
*	*	*	*	*	*	*	*	*	*	*v	*v	*	*	*
=9	=9	=9	=9	=9	=9	=9	=9	=9	=9	=9	=9	=9	=9
*	*	*	*	*	*	*^	*	*	*	*	*	*	*
[>2G\	2r	2G\	2ryy	-ter-	-czy-	2r	2ryy	.	.	.	1r	.	.	.
8.G\]	8.r	8.G\	8.ryy	-nam	-nek	8.r	8.ryy	.	.	.	.	.	.	.
[>16G\	[>16B-</	16G/	16G\	Lux	Daj	16B-/	16B-\	Lux	Daj	.	.	.	.	.
8.G\L]	8.B-</L]	8.G/	8.G\L	ae-	im	8.B-/	8.B-\L	ae-	im	.	.	.	.	.
16F\Jk	16A-</Jk	16F/	16F\Jk	.	spo-	16A-/	16A-\Jk	.	spo-	.	.	.	.	.
*	*	*v	*v	*	*	*	*	*	*	*	*	*	*	*
*	*	*	*	*	*v	*v	*	*	*	*	*	*	*
=10	=10	=10	=10	=10	=10	=10	=10	=10	=10	=10	=10	=10
*^	*	*	*	*	*	*	*	*	*^	*	*	*
2G/	2E-\	2r	1E-	-ter-	-czy-	1G	-ter-	-czy-	.	2r	2ryy	.	.	.
2G/	2EE-\ 2E-	8.r	.	.	.	.	.	.	.	8.r	8.ryy	.	.	.
.	.	16B-/	.	.	.	.	.	.	.	16B-/	16B-\	Lux	Daj	.
.	.	8.e-/L	.	.	.	.	.	.	.	8.e-/	8.e-\L	ae-	im	.
.	.	16d/Jk	.	.	.	.	.	.	.	16d/	16d\Jk	.	spo-	.
*v	*v	*	*	*	*	*	*	*	*	*v	*v	*	*	*
!!LO:LB:g=original
=11	=11	=11	=11	=11	=11	=11	=11	=11	=11	=11	=11	=11
*	*	*^	*	*	*^	*	*	*	*	*	*	*
2AA-\ 2A-	2c</	[>2A-\	2ryy	-nam	-nek	(<2A-/	2ryy	-nam	-nek	.	2c\	-ter-	-czy-	.
8.AA-\ 8.A-	8.c</	8.A-\]	8.ryy	.	.	8.A-/)	8.ryy	.	.	.	4c\	-nam	-nek	.
16AA-\KL 16A-	16c</KL	16A-/	16A-\	Lux	Daj	16c/	16c\	.	.	.	.	.	.	.
8.AA-\ 8.A-	8.c</	8.A-/	8.A-\L	ae-	im	8.c/	8.c\L	.	.	.	4r	.	.	.
16GG\Jk 16G	16B-</Jk	16G/	16G\Jk	.	spo-	16B-/	16B-\Jk	.	.	.	.	.	.	.
*	*	*v	*v	*	*	*	*	*	*	*	*	*	*	*
*	*	*	*	*	*v	*v	*	*	*	*	*	*	*
=12	=12	=12	=12	=12	=12	=12	=12	=12	=12	=12	=12	=12
[2FF\ [2F	2A-</	2F\	-ter-	-czy-	2A-/	.	.	.	2r	.	.	.
8.FF\L] 8.F]	8.A-</L	8.F\	-nam	-nek	8.A-/	.	.	.	8.r	.	.	.
16FF\K 16F	16A-</K 16c	16F\	lu-	daj	16A-/	.	.	.	16c\	lu-	Daj	.
8.FF\ 8.F	8.A-</ 8.f	8.F\	-ce-	im	8.A-/	.	.	.	8.f\	-ce-	im	.
16FF\Jk 16F	16An</Jk 16e-	16F\	-at	spo-	16An/	.	.	.	16e-\	-at	spo-	.
=13	=13	=13	=13	=13	=13	=13	=13	=13	=13	=13	=13	=13
*^	*	*^	*	*	*^	*	*	*	*	*	*	*
[>2BB-/	2BB-\	[>2B-/ [>2d	2BB-/	2.ryy	e-	-czy-	2B-\	2ryy	.	.	.	2d\	e-	-czy-	.
8.BB-/]	2ryy	8.B-/] 8.d]	8.BB-/	.	-is	-nek	8.B-\	8.ryy	.	.	.	4d\	-is	-nek	.
16BB-\KL 16B-	.	16d/KL	16BB-/	.	Do-	Daj	16d/	16d\	.	.	.	.	.	.	.
8.BB-\ 8.B-	.	8.d/	8.B-/	8.B-\L	-mi-	im	8.d/	8.d\L	.	.	.	4r	.	.	.
16AA-X\Jk 16A-X	.	16c/Jk	16A-X/	16A-X\Jk	.	spo-	16c/	16c\Jk	.	.	.	.	.	.	.
*v	*v	*	*	*	*	*	*	*	*	*	*	*	*	*	*
!!LO:PB:g=original
=14	=14	=14	=14	=14	=14	=14	=14	=14	=14	=14	=14	=14	=14	=14
*	*	*	*	*	*	*	*	*	*	*	*^	*	*	*
*	*^	*	*	*	*	*	*	*	*	*	*	*	*	*	*
2GG\ 2G	2ryy	2Bn</	2G/	[>2G\	-ne	-czy-	2Bn/	2Bn\	.	.	.	2r	2ryy	.	.	.
2GG\ 2G	8.ryy	2B</	8.G/	8.G\]	.	-nek	8.B/	8.B\	.	.	.	8.r	8.ryy	.	.	.
.	16d/KL	.	[>16G/	16G\	Do-	Daj	16B/	16B\KL	.	.	.	16Bn/	16Bn\KL	Do-	Daj	.
.	8.g/	.	8.G/]	8.G\L	.	im	8.B/	8.B\J	.	.	.	8.g/	8.g\J	.	im	.
.	16f/Jk	.	16G/	16G\Jk	-mi-	spo-	16B/	16B\	.	.	.	16f/	16f\	-mi-	spo-	.
*	*v	*v	*	*	*	*	*	*	*	*	*	*	*	*	*	*
=15	=15	=15	=15	=15	=15	=15	=15	=15	=15	=15	=15	=15	=15	=15	=15
2AA-\ 2A-	2c/ 2e-	2A-/	4A-\	-ne	-czy-	2c/	4c\	.	.	.	2e-/	4e-\	-ne	-czy-	.
.	.	.	4A-\	cum	.	.	4c\	.	.	.	.	4e-\	cum	.	.
4EE-/ 4E-	2c/ 2e-	(>4E-/	8E-\	sanc-	-nek	2c/	8c\	.	.	.	2e-/	8e-\	sanc-	-nek	.
.	.	.	8E-\	-tis	.	.	8c\	.	.	.	.	8e-\	-tis	.	.
4FF/ 4F	.	4F/)	8F\	tu-	.	.	8c\	.	.	.	.	8e-\	tu-	.	.
.	.	.	8F\	-is	.	.	8c\	.	.	.	.	8e-\	-is	.	.
*	*	*v	*v	*	*	*	*	*	*	*	*v	*v	*	*	*
*	*	*	*	*	*v	*v	*	*	*	*	*	*	*
=16	=16	=16	=16	=16	=16	=16	=16	=16	=16	=16	=16	=16
2GG\ 2G	[<2c/ 2d	4.G\	in	w_nie-	4.c\	.	.	.	4.d\	.	.	.
.	.	8G\	ae-	-skoń-	8c\	.	.	.	8d\	.	.	.
4FF#X\ 4F#X	4c/] 4e-	4F#X\	-ter-	-czo-	4c\	.	.	.	4e-\	.	.	.
4AAn\ 4An	4c/	4An\	-nam	-ne	4c\	.	.	.	4c\	.	.	.
!!LO:LB:g=original
=17	=17	=17	=17	=17	=17	=17	=17	=17	=17	=17	=17	=17
*	*	*^	*	*	*^	*	*	*	*^	*	*	*
[<1GG [>1G	2c/ 2e-	4.G\	[>2G/	qui-	la-	2c/	4.c\	.	.	.	2e-/	4.e-\	.	.	.
.	.	8G\	.	-a	.	.	(>8c\	.	.	.	.	(>8e-\	.	.	.
.	4Bn/ 4d	4G\	2G/]	pi-	.	4Bn/	4Bn\	.	.	.	4d/	4d\	.	.	.
.	4An/ 4c	4G\	.	-us	.	4An/	4An\)	.	.	.	4c/)	4c\	.	.	.
*	*	*v	*v	*	*	*	*	*	*	*	*v	*v	*	*	*
*	*	*	*	*	*v	*v	*	*	*	*	*	*	*
=18	=18	=18	=18	=18	=18	=18	=18	=18	=18	=18	=18	=18
4GG\] 4G]	4Bn/ 4d	4G\	es,	-ta,	4Bn\	.	.	.	4d\	.	.	.
2GG\ 2G	2g/	4r	.	.	4r	.	.	.	4r	.	.	.
!	!	!LO:TX:a:t=D`al Segno\nRequiem al \nfine .	!	!	!	!	!	!	!LO:TX:a:t=segno	!	!	!
.	.	2r	.	.	2r	.	.	.	2r	.	.	.
4GG\ 4G	4g/	.	.	.	.	.	.	.	.	.	.	.
!!LO:PB:g=original
==	==	==	==	==	==	==	==	==	==	==	==	==
*-	*-	*-	*-	*-	*-	*-	*-	*-	*-	*-	*-	*-
!!!system-decoration: {(s1,s2,s3)}{(s4,s5)}
!!!RDF**kern: < = below
!!!RDF**kern: > = above
!!!ENC: Marta Chmielewska
!!!END: 2021-06-09
!!!ENC: Tomasz Grochalski
!!!END: 2021-06-06
